;FLAVOR:Marlin
;TIME:43243
;Filament used: 33.0976m
;Layer height: 0.2
;MINX:29.7
;MINY:24.096
;MINZ:0.2
;MAXX:205.3
;MAXY:209.997
;MAXZ:26
;Generated with Cura_SteamEngine 4.13.1
M140 S65
M105
M190 S65
M104 S230
M105
M109 S230
M82 ;absolute extrusion mode
; Ender 3 Custom Start G-code
G92 E0 ; Reset Extruder
G28 ; Home all axes
G1 Z2.0 F3000 ; Move Z Axis up little to prevent scratching of Heat Bed
G1 X0.1 Y20 Z0.3 F5000.0 ; Move to start position
G1 X0.1 Y200.0 Z0.3 F1500.0 E15 ; Draw the first line
G1 X0.4 Y200.0 Z0.3 F5000.0 ; Move to side a little
G1 X0.4 Y20 Z0.3 F1500.0 E30 ; Draw the second line
G92 E0 ; Reset Extruder
G1 Z2.0 F3000 ; Move Z Axis up little to prevent scratching of Heat Bed
G1 X5 Y20 Z0.3 F5000.0 ; Move over to prevent blob squish
G92 E0
G92 E0
G1 F2700 E-5
;LAYER_COUNT:130
;LAYER:0
M107
G0 F6000 X31.58 Y26.935 Z0.2
;TYPE:SKIRT
G1 F2700 E0
G1 F1200 X31.985 Y26.498 E0.01982
G1 X32.102 Y26.381 E0.02532
G1 X32.688 Y25.851 E0.0516
G1 X33.324 Y25.384 E0.07784
G1 X34.004 Y24.983 E0.1041
G1 X34.722 Y24.653 E0.13038
G1 X35.469 Y24.398 E0.15664
G1 X36.238 Y24.219 E0.1829
G1 X37.022 Y24.119 E0.20918
G1 X37.617 Y24.096 E0.22899
G1 X197.383 Y24.096 E5.54283
G1 X198.172 Y24.136 E5.5691
G1 X198.952 Y24.255 E5.59535
G1 X199.717 Y24.453 E5.62163
G1 X200.457 Y24.727 E5.64787
G1 X201.166 Y25.075 E5.67414
G1 X201.837 Y25.493 E5.70044
G1 X202.461 Y25.976 E5.72668
G1 X202.898 Y26.381 E5.7465
G1 X203.015 Y26.498 E5.752
G1 X203.545 Y27.084 E5.77828
G1 X204.012 Y27.72 E5.80452
G1 X204.413 Y28.4 E5.83078
G1 X204.743 Y29.118 E5.85706
G1 X204.998 Y29.865 E5.88332
G1 X205.177 Y30.634 E5.90958
G1 X205.277 Y31.418 E5.93586
G1 X205.3 Y32.013 E5.95567
G1 X205.3 Y202.08 E11.61212
G1 X205.26 Y202.869 E11.6384
G1 X205.141 Y203.649 E11.66464
G1 X204.943 Y204.414 E11.69092
G1 X204.669 Y205.154 E11.71717
G1 X204.321 Y205.863 E11.74344
G1 X203.903 Y206.534 E11.76973
G1 X203.42 Y207.158 E11.79598
G1 X203.015 Y207.595 E11.81579
G1 X202.898 Y207.712 E11.8213
G1 X202.312 Y208.242 E11.84758
G1 X201.676 Y208.709 E11.87382
G1 X200.996 Y209.11 E11.90008
G1 X200.278 Y209.44 E11.92636
G1 X199.531 Y209.695 E11.95261
G1 X198.762 Y209.874 E11.97887
G1 X197.978 Y209.974 E12.00516
G1 X197.383 Y209.997 E12.02496
G1 X37.617 Y209.997 E17.3388
G1 X36.828 Y209.957 E17.36508
G1 X36.048 Y209.838 E17.39132
G1 X35.283 Y209.64 E17.4176
G1 X34.543 Y209.366 E17.44385
G1 X33.834 Y209.018 E17.47012
G1 X33.163 Y208.6 E17.49641
G1 X32.539 Y208.117 E17.52266
G1 X32.102 Y207.712 E17.54247
G1 X31.985 Y207.595 E17.54798
G1 X31.455 Y207.009 E17.57426
G1 X30.988 Y206.373 E17.6005
G1 X30.587 Y205.693 E17.62676
G1 X30.257 Y204.975 E17.65304
G1 X30.002 Y204.228 E17.67929
G1 X29.823 Y203.459 E17.70555
G1 X29.723 Y202.675 E17.73184
G1 X29.7 Y202.08 E17.75165
G1 X29.7 Y32.013 E23.4081
G1 X29.74 Y31.224 E23.43437
G1 X29.859 Y30.444 E23.46062
G1 X30.057 Y29.679 E23.4869
G1 X30.331 Y28.939 E23.51314
G1 X30.679 Y28.23 E23.53941
G1 X31.097 Y27.559 E23.56571
G1 X31.58 Y26.935 E23.59195
G0 F6000 X31.975 Y27.09
G1 F1200 X32.267 Y26.78 E23.60612
G1 X32.384 Y26.663 E23.61162
G1 X32.956 Y26.149 E23.6372
G1 X33.578 Y25.696 E23.66279
G1 X34.243 Y25.31 E23.68836
G1 X34.945 Y24.995 E23.71395
G1 X35.676 Y24.755 E23.73954
G1 X36.427 Y24.592 E23.7651
G1 X37.192 Y24.508 E23.7907
G1 X37.617 Y24.496 E23.80484
G1 X197.383 Y24.496 E29.11868
G1 X198.151 Y24.536 E29.14426
G1 X198.911 Y24.655 E29.16985
G1 X199.654 Y24.853 E29.19542
G1 X200.373 Y25.127 E29.22101
G1 X201.059 Y25.474 E29.24658
G1 X201.706 Y25.89 E29.27217
G1 X202.306 Y26.371 E29.29774
G1 X202.616 Y26.663 E29.31191
G1 X202.733 Y26.78 E29.31741
G1 X203.247 Y27.352 E29.34299
G1 X203.7 Y27.974 E29.36858
G1 X204.086 Y28.639 E29.39415
G1 X204.401 Y29.341 E29.41975
G1 X204.641 Y30.072 E29.44534
G1 X204.804 Y30.823 E29.4709
G1 X204.888 Y31.588 E29.49649
G1 X204.9 Y32.013 E29.51063
G1 X204.9 Y202.08 E35.16709
G1 X204.86 Y202.848 E35.19266
G1 X204.741 Y203.608 E35.21825
G1 X204.543 Y204.351 E35.24382
G1 X204.269 Y205.07 E35.26942
G1 X203.922 Y205.756 E35.29499
G1 X203.506 Y206.403 E35.32057
G1 X203.025 Y207.003 E35.34615
G1 X202.733 Y207.313 E35.36031
G1 X202.616 Y207.43 E35.36581
G1 X202.044 Y207.944 E35.39139
G1 X201.422 Y208.397 E35.41698
G1 X200.757 Y208.783 E35.44256
G1 X200.055 Y209.098 E35.46815
G1 X199.324 Y209.338 E35.49374
G1 X198.573 Y209.501 E35.5193
G1 X197.808 Y209.585 E35.5449
G1 X197.383 Y209.597 E35.55904
G1 X37.617 Y209.597 E40.87288
G1 X36.849 Y209.557 E40.89845
G1 X36.089 Y209.438 E40.92404
G1 X35.346 Y209.24 E40.94961
G1 X34.627 Y208.966 E40.97521
G1 X33.941 Y208.619 E41.00078
G1 X33.294 Y208.203 E41.02636
G1 X32.694 Y207.722 E41.05194
G1 X32.384 Y207.43 E41.0661
G1 X32.267 Y207.313 E41.0716
G1 X31.753 Y206.741 E41.09718
G1 X31.3 Y206.119 E41.12277
G1 X30.914 Y205.454 E41.14835
G1 X30.599 Y204.752 E41.17394
G1 X30.359 Y204.021 E41.19953
G1 X30.196 Y203.27 E41.22509
G1 X30.112 Y202.505 E41.25069
G1 X30.1 Y202.08 E41.26483
G1 X30.1 Y32.013 E46.92128
G1 X30.14 Y31.245 E46.94686
G1 X30.259 Y30.485 E46.97244
G1 X30.457 Y29.742 E46.99802
G1 X30.731 Y29.023 E47.02361
G1 X31.078 Y28.337 E47.04918
G1 X31.494 Y27.69 E47.07476
G1 X31.975 Y27.09 E47.10034
G0 F6000 X31.892 Y27.824
G1 F1200 X32.55 Y27.063 E47.1338
G1 X32.667 Y26.946 E47.1393
G1 X33.224 Y26.446 E47.1642
G1 X33.83 Y26.009 E47.18905
G1 X34.48 Y25.638 E47.21394
G1 X35.166 Y25.339 E47.23883
G1 X35.88 Y25.115 E47.26372
G1 X36.613 Y24.968 E47.28859
G1 X37.617 Y24.896 E47.32206
G1 X197.383 Y24.896 E52.6359
G1 X198.13 Y24.936 E52.66078
G1 X198.868 Y25.055 E52.68565
G1 X199.59 Y25.253 E52.71055
G1 X200.286 Y25.526 E52.73541
G1 X200.949 Y25.873 E52.7603
G1 X201.572 Y26.288 E52.7852
G1 X202.333 Y26.946 E52.81866
G1 X202.45 Y27.063 E52.82416
G1 X202.95 Y27.62 E52.84906
G1 X203.387 Y28.226 E52.87391
G1 X203.758 Y28.876 E52.8988
G1 X204.057 Y29.562 E52.92369
G1 X204.281 Y30.276 E52.94858
G1 X204.428 Y31.009 E52.97344
G1 X204.5 Y32.013 E53.00692
G1 X204.5 Y202.08 E58.66338
G1 X204.46 Y202.827 E58.68826
G1 X204.341 Y203.565 E58.71312
G1 X204.143 Y204.287 E58.73802
G1 X203.87 Y204.983 E58.76289
G1 X203.523 Y205.646 E58.78777
G1 X203.108 Y206.269 E58.81267
G1 X202.45 Y207.03 E58.84613
G1 X202.333 Y207.147 E58.85164
G1 X201.776 Y207.647 E58.87653
G1 X201.17 Y208.084 E58.90138
G1 X200.52 Y208.455 E58.92627
G1 X199.834 Y208.754 E58.95116
G1 X199.12 Y208.978 E58.97605
G1 X198.387 Y209.125 E59.00092
G1 X197.383 Y209.197 E59.0344
G1 X37.617 Y209.197 E64.34824
G1 X36.87 Y209.157 E64.37312
G1 X36.132 Y209.038 E64.39798
G1 X35.41 Y208.84 E64.42288
G1 X34.714 Y208.567 E64.44775
G1 X34.051 Y208.22 E64.47263
G1 X33.428 Y207.805 E64.49753
G1 X32.667 Y207.147 E64.53099
G1 X32.55 Y207.03 E64.5365
G1 X32.05 Y206.473 E64.56139
G1 X31.613 Y205.867 E64.58624
G1 X31.242 Y205.217 E64.61113
G1 X30.943 Y204.531 E64.63602
G1 X30.719 Y203.817 E64.66091
G1 X30.572 Y203.084 E64.68578
G1 X30.5 Y202.08 E64.71926
G1 X30.5 Y32.013 E70.37571
G1 X30.54 Y31.266 E70.40059
G1 X30.659 Y30.528 E70.42545
G1 X30.857 Y29.806 E70.45035
G1 X31.13 Y29.11 E70.47522
G1 X31.477 Y28.447 E70.50011
G1 X31.892 Y27.824 E70.525
G0 F6000 X32.289 Y27.963
G1 F1200 X32.833 Y27.346 E70.55236
G1 X32.95 Y27.229 E70.55787
G1 X33.491 Y26.745 E70.58201
G1 X34.082 Y26.322 E70.60618
G1 X34.716 Y25.968 E70.63033
G1 X35.385 Y25.685 E70.65449
G1 X36.081 Y25.477 E70.67866
G1 X36.796 Y25.347 E70.70283
G1 X37.617 Y25.296 E70.73019
G1 X197.383 Y25.296 E76.04402
G1 X198.108 Y25.336 E76.06817
G1 X198.825 Y25.455 E76.09235
G1 X199.524 Y25.653 E76.11651
G1 X200.197 Y25.926 E76.14067
G1 X200.836 Y26.271 E76.16482
G1 X201.433 Y26.685 E76.18898
G1 X202.05 Y27.229 E76.21634
G1 X202.167 Y27.346 E76.22185
G1 X202.651 Y27.887 E76.24599
G1 X203.074 Y28.478 E76.27016
G1 X203.428 Y29.112 E76.29431
G1 X203.711 Y29.781 E76.31847
G1 X203.919 Y30.477 E76.34263
G1 X204.049 Y31.192 E76.36681
G1 X204.1 Y32.013 E76.39416
G1 X204.1 Y202.08 E82.05062
G1 X204.06 Y202.805 E82.07477
G1 X203.941 Y203.522 E82.09894
G1 X203.743 Y204.221 E82.1231
G1 X203.47 Y204.894 E82.14726
G1 X203.125 Y205.533 E82.17141
G1 X202.711 Y206.13 E82.19558
G1 X202.167 Y206.747 E82.22293
G1 X202.05 Y206.864 E82.22844
G1 X201.509 Y207.348 E82.25258
G1 X200.918 Y207.771 E82.27675
G1 X200.284 Y208.125 E82.30091
G1 X199.615 Y208.408 E82.32507
G1 X198.919 Y208.616 E82.34923
G1 X198.204 Y208.746 E82.3734
G1 X197.383 Y208.797 E82.40076
G1 X37.617 Y208.797 E87.7146
G1 X36.892 Y208.757 E87.73875
G1 X36.175 Y208.638 E87.76292
G1 X35.476 Y208.44 E87.78708
G1 X34.803 Y208.167 E87.81124
G1 X34.164 Y207.822 E87.83539
G1 X33.567 Y207.408 E87.85956
G1 X32.95 Y206.864 E87.88691
G1 X32.833 Y206.747 E87.89242
G1 X32.349 Y206.206 E87.91656
G1 X31.926 Y205.615 E87.94073
G1 X31.572 Y204.981 E87.96489
G1 X31.289 Y204.312 E87.98905
G1 X31.081 Y203.616 E88.01321
G1 X30.951 Y202.901 E88.03738
G1 X30.9 Y202.08 E88.06474
G1 X30.9 Y32.013 E93.72119
G1 X30.94 Y31.288 E93.74534
G1 X31.059 Y30.571 E93.76951
G1 X31.257 Y29.872 E93.79367
G1 X31.53 Y29.199 E93.81783
G1 X31.875 Y28.56 E93.84198
G1 X32.289 Y27.963 E93.86615
G0 F6000 X32.685 Y28.107
G1 F1200 X33.116 Y27.629 E93.88755
G1 X33.233 Y27.512 E93.89306
G1 X33.758 Y27.043 E93.91647
G1 X34.333 Y26.637 E93.93988
G1 X34.951 Y26.299 E93.96331
G1 X35.602 Y26.032 E93.98671
G1 X36.28 Y25.842 E94.01013
G1 X36.975 Y25.729 E94.03355
G1 X37.617 Y25.696 E94.05493
G1 X197.383 Y25.696 E99.36877
G1 X198.086 Y25.736 E99.39219
G1 X198.78 Y25.855 E99.41561
G1 X199.455 Y26.053 E99.43901
G1 X200.104 Y26.325 E99.46241
G1 X200.718 Y26.67 E99.48584
G1 X201.289 Y27.081 E99.50924
G1 X201.767 Y27.512 E99.53064
G1 X201.884 Y27.629 E99.53615
G1 X202.353 Y28.154 E99.55956
G1 X202.759 Y28.729 E99.58297
G1 X203.097 Y29.347 E99.6064
G1 X203.364 Y29.998 E99.6298
G1 X203.554 Y30.676 E99.65322
G1 X203.667 Y31.371 E99.67664
G1 X203.7 Y32.013 E99.69802
G1 X203.7 Y202.08 E105.35448
G1 X203.66 Y202.783 E105.3779
G1 X203.541 Y203.477 E105.40131
G1 X203.343 Y204.152 E105.42471
G1 X203.071 Y204.801 E105.44812
G1 X202.726 Y205.415 E105.47154
G1 X202.315 Y205.986 E105.49494
G1 X201.884 Y206.464 E105.51635
G1 X201.767 Y206.581 E105.52185
G1 X201.242 Y207.05 E105.54527
G1 X200.667 Y207.456 E105.56868
G1 X200.049 Y207.794 E105.5921
G1 X199.398 Y208.061 E105.61551
G1 X198.72 Y208.251 E105.63893
G1 X198.025 Y208.364 E105.66235
G1 X197.383 Y208.397 E105.68373
G1 X37.617 Y208.397 E110.99757
G1 X36.914 Y208.357 E111.02099
G1 X36.22 Y208.238 E111.0444
G1 X35.545 Y208.04 E111.0678
G1 X34.896 Y207.768 E111.09121
G1 X34.282 Y207.423 E111.11463
G1 X33.711 Y207.012 E111.13803
G1 X33.233 Y206.581 E111.15944
G1 X33.116 Y206.464 E111.16494
G1 X32.647 Y205.939 E111.18836
G1 X32.241 Y205.364 E111.21177
G1 X31.903 Y204.746 E111.23519
G1 X31.636 Y204.095 E111.2586
G1 X31.446 Y203.417 E111.28202
G1 X31.333 Y202.722 E111.30544
G1 X31.3 Y202.08 E111.32682
G1 X31.3 Y32.013 E116.98327
G1 X31.34 Y31.31 E117.00669
G1 X31.459 Y30.616 E117.03011
G1 X31.657 Y29.941 E117.0535
G1 X31.929 Y29.292 E117.07691
G1 X32.274 Y28.678 E117.10033
G1 X32.685 Y28.107 E117.12373
G0 F6000 X33.082 Y28.255
G1 F1200 X33.399 Y27.912 E117.13927
G1 X33.516 Y27.795 E117.14477
G1 X34.025 Y27.342 E117.16743
G1 X34.583 Y26.953 E117.19006
G1 X35.183 Y26.631 E117.21271
G1 X35.817 Y26.382 E117.23536
G1 X36.476 Y26.209 E117.25802
G1 X37.15 Y26.115 E117.28066
G1 X37.617 Y26.096 E117.2962
G1 X197.383 Y26.096 E122.61004
G1 X198.063 Y26.136 E122.6327
G1 X198.733 Y26.255 E122.65533
G1 X199.385 Y26.452 E122.67798
G1 X200.009 Y26.724 E122.70062
G1 X200.597 Y27.068 E122.72328
G1 X201.141 Y27.478 E122.74594
G1 X201.484 Y27.795 E122.76147
G1 X201.601 Y27.912 E122.76698
G1 X202.054 Y28.421 E122.78964
G1 X202.443 Y28.979 E122.81226
G1 X202.765 Y29.579 E122.83491
G1 X203.014 Y30.213 E122.85757
G1 X203.187 Y30.872 E122.88023
G1 X203.281 Y31.546 E122.90286
G1 X203.3 Y32.013 E122.91841
G1 X203.3 Y202.08 E128.57486
G1 X203.26 Y202.76 E128.59751
G1 X203.141 Y203.43 E128.62015
G1 X202.944 Y204.082 E128.6428
G1 X202.672 Y204.706 E128.66544
G1 X202.328 Y205.294 E128.6881
G1 X201.918 Y205.838 E128.71076
G1 X201.601 Y206.181 E128.72629
G1 X201.484 Y206.298 E128.73179
G1 X200.975 Y206.751 E128.75446
G1 X200.417 Y207.14 E128.77708
G1 X199.817 Y207.462 E128.79973
G1 X199.183 Y207.711 E128.82238
G1 X198.524 Y207.884 E128.84505
G1 X197.85 Y207.978 E128.86768
G1 X197.383 Y207.997 E128.88323
G1 X37.617 Y207.997 E134.19706
G1 X36.937 Y207.957 E134.21972
G1 X36.267 Y207.838 E134.24235
G1 X35.615 Y207.641 E134.26501
G1 X34.991 Y207.369 E134.28765
G1 X34.403 Y207.025 E134.31031
G1 X33.859 Y206.615 E134.33296
G1 X33.516 Y206.298 E134.3485
G1 X33.399 Y206.181 E134.354
G1 X32.946 Y205.672 E134.37666
G1 X32.557 Y205.114 E134.39929
G1 X32.235 Y204.514 E134.42193
G1 X31.986 Y203.88 E134.44459
G1 X31.813 Y203.221 E134.46725
G1 X31.719 Y202.547 E134.48989
G1 X31.7 Y202.08 E134.50543
G1 X31.7 Y32.013 E140.16188
G1 X31.74 Y31.333 E140.18454
G1 X31.859 Y30.663 E140.20717
G1 X32.056 Y30.011 E140.22982
G1 X32.328 Y29.387 E140.25247
G1 X32.672 Y28.799 E140.27512
G1 X33.082 Y28.255 E140.29778
G0 F6000 X33.682 Y28.195
G1 F1200 X33.799 Y28.078 E140.30328
G1 X34.291 Y27.642 E140.32515
G1 X34.832 Y27.27 E140.34699
G1 X35.414 Y26.966 E140.36882
G1 X36.029 Y26.735 E140.39067
G1 X36.668 Y26.58 E140.41254
G1 X37.617 Y26.496 E140.44423
G1 X197.383 Y26.496 E145.75807
G1 X198.039 Y26.536 E145.77993
G1 X198.685 Y26.655 E145.80178
G1 X199.312 Y26.852 E145.82364
G1 X199.91 Y27.124 E145.84549
G1 X200.471 Y27.466 E145.86734
G1 X201.201 Y28.078 E145.89902
G1 X201.318 Y28.195 E145.90453
G1 X201.754 Y28.687 E145.92639
G1 X202.126 Y29.228 E145.94823
G1 X202.43 Y29.81 E145.97007
G1 X202.661 Y30.425 E145.99192
G1 X202.816 Y31.064 E146.01379
G1 X202.9 Y32.013 E146.04547
G1 X202.9 Y202.08 E151.70193
G1 X202.86 Y202.736 E151.72378
G1 X202.741 Y203.382 E151.74563
G1 X202.544 Y204.009 E151.76749
G1 X202.272 Y204.607 E151.78934
G1 X201.93 Y205.168 E151.81119
G1 X201.318 Y205.898 E151.84288
G1 X201.201 Y206.015 E151.84838
G1 X200.709 Y206.451 E151.87025
G1 X200.168 Y206.823 E151.89208
G1 X199.586 Y207.127 E151.91392
G1 X198.971 Y207.358 E151.93577
G1 X198.332 Y207.513 E151.95764
G1 X197.383 Y207.597 E151.98933
G1 X37.617 Y207.597 E157.30317
G1 X36.961 Y207.557 E157.32503
G1 X36.315 Y207.438 E157.34688
G1 X35.688 Y207.241 E157.36873
G1 X35.09 Y206.969 E157.39058
G1 X34.529 Y206.627 E157.41244
G1 X33.799 Y206.015 E157.44412
G1 X33.682 Y205.898 E157.44962
G1 X33.246 Y205.406 E157.47149
G1 X32.874 Y204.865 E157.49333
G1 X32.57 Y204.283 E157.51517
G1 X32.339 Y203.668 E157.53702
G1 X32.184 Y203.029 E157.55889
G1 X32.1 Y202.08 E157.59057
G1 X32.1 Y32.013 E163.24702
G1 X32.14 Y31.357 E163.26888
G1 X32.259 Y30.711 E163.29073
G1 X32.456 Y30.084 E163.31259
G1 X32.728 Y29.486 E163.33444
G1 X33.07 Y28.925 E163.35629
G1 X33.682 Y28.195 E163.38798
G0 F6000 X33.964 Y28.477
G1 F1200 X34.081 Y28.36 E163.39348
G1 X34.556 Y27.943 E163.4145
G1 X35.079 Y27.588 E163.43553
G1 X35.643 Y27.302 E163.45656
G1 X36.238 Y27.09 E163.47757
G1 X36.856 Y26.954 E163.49861
G1 X37.617 Y26.896 E163.524
G1 X197.383 Y26.896 E168.83784
G1 X198.014 Y26.936 E168.85887
G1 X198.635 Y27.055 E168.8799
G1 X199.235 Y27.252 E168.9009
G1 X199.807 Y27.523 E168.92195
G1 X200.339 Y27.863 E168.94295
G1 X200.919 Y28.36 E168.96836
G1 X201.036 Y28.477 E168.97386
G1 X201.453 Y28.952 E168.99488
G1 X201.808 Y29.475 E169.01591
G1 X202.094 Y30.039 E169.03694
G1 X202.306 Y30.634 E169.05795
G1 X202.442 Y31.252 E169.07899
G1 X202.5 Y32.013 E169.10438
G1 X202.5 Y202.08 E174.76083
G1 X202.46 Y202.711 E174.78186
G1 X202.341 Y203.332 E174.80289
G1 X202.144 Y203.932 E174.82389
