;FLAVOR:Marlin
;TIME:48884
;Filament used: 35.2606m
;Layer height: 0.2
;MINX:29.7
;MINY:24.7
;MINZ:0.2
;MAXX:205.3
;MAXY:210.3
;MAXZ:32
;Generated with Cura_SteamEngine 4.13.1
M140 S65
M105
M190 S65
M104 S230
M105
M109 S230
M82 ;absolute extrusion mode
; Ender 3 Custom Start G-code
G92 E0 ; Reset Extruder
G28 ; Home all axes
G1 Z2.0 F3000 ; Move Z Axis up little to prevent scratching of Heat Bed
G1 X0.1 Y20 Z0.3 F5000.0 ; Move to start position
G1 X0.1 Y200.0 Z0.3 F1500.0 E15 ; Draw the first line
G1 X0.4 Y200.0 Z0.3 F5000.0 ; Move to side a little
G1 X0.4 Y20 Z0.3 F1500.0 E30 ; Draw the second line
G92 E0 ; Reset Extruder
G1 Z2.0 F3000 ; Move Z Axis up little to prevent scratching of Heat Bed
G1 X5 Y20 Z0.3 F5000.0 ; Move over to prevent blob squish
G92 E0
G92 E0
G1 F2700 E-5
;LAYER_COUNT:160
;LAYER:0
M107
G0 F6000 X31.58 Y27.539 Z0.2
;TYPE:SKIRT
G1 F2700 E0
G1 F1200 X31.985 Y27.102 E0.01982
G1 X32.102 Y26.985 E0.02532
G1 X32.688 Y26.455 E0.0516
G1 X33.324 Y25.988 E0.07784
G1 X34.004 Y25.587 E0.1041
G1 X34.722 Y25.257 E0.13038
G1 X35.469 Y25.002 E0.15664
G1 X36.238 Y24.823 E0.1829
G1 X37.022 Y24.723 E0.20918
G1 X37.617 Y24.7 E0.22899
G1 X197.383 Y24.7 E5.54283
G1 X198.172 Y24.74 E5.5691
G1 X198.952 Y24.859 E5.59535
G1 X199.717 Y25.057 E5.62163
G1 X200.457 Y25.331 E5.64787
G1 X201.166 Y25.679 E5.67414
G1 X201.837 Y26.097 E5.70044
G1 X202.461 Y26.58 E5.72668
G1 X202.898 Y26.985 E5.7465
G1 X203.015 Y27.102 E5.752
G1 X203.545 Y27.688 E5.77828
G1 X204.012 Y28.324 E5.80452
G1 X204.413 Y29.004 E5.83078
G1 X204.743 Y29.722 E5.85706
G1 X204.998 Y30.469 E5.88332
G1 X205.177 Y31.238 E5.90958
G1 X205.277 Y32.022 E5.93586
G1 X205.3 Y32.617 E5.95567
G1 X205.3 Y202.383 E11.60211
G1 X205.26 Y203.172 E11.62839
G1 X205.141 Y203.952 E11.65463
G1 X204.943 Y204.717 E11.68091
G1 X204.669 Y205.457 E11.70716
G1 X204.321 Y206.166 E11.73343
G1 X203.903 Y206.837 E11.75972
G1 X203.42 Y207.461 E11.78596
G1 X203.015 Y207.898 E11.80578
G1 X202.898 Y208.015 E11.81128
G1 X202.312 Y208.545 E11.83756
G1 X201.676 Y209.012 E11.86381
G1 X200.996 Y209.413 E11.89006
G1 X200.278 Y209.743 E11.91635
G1 X199.531 Y209.998 E11.9426
G1 X198.762 Y210.177 E11.96886
G1 X197.978 Y210.277 E11.99515
G1 X197.383 Y210.3 E12.01495
G1 X37.617 Y210.3 E17.32879
G1 X36.828 Y210.26 E17.35507
G1 X36.048 Y210.141 E17.38131
G1 X35.283 Y209.943 E17.40759
G1 X34.543 Y209.669 E17.43384
G1 X33.834 Y209.321 E17.46011
G1 X33.163 Y208.903 E17.4864
G1 X32.539 Y208.42 E17.51265
G1 X32.102 Y208.015 E17.53246
G1 X31.985 Y207.898 E17.53797
G1 X31.455 Y207.312 E17.56425
G1 X30.988 Y206.676 E17.59049
G1 X30.587 Y205.996 E17.61675
G1 X30.257 Y205.278 E17.64303
G1 X30.002 Y204.531 E17.66928
G1 X29.823 Y203.762 E17.69554
G1 X29.723 Y202.978 E17.72183
G1 X29.7 Y202.383 E17.74163
G1 X29.7 Y32.617 E23.38807
G1 X29.74 Y31.828 E23.41435
G1 X29.859 Y31.048 E23.44059
G1 X30.057 Y30.283 E23.46688
G1 X30.331 Y29.543 E23.49312
G1 X30.679 Y28.834 E23.51939
G1 X31.097 Y28.163 E23.54568
G1 X31.58 Y27.539 E23.57193
G0 F6000 X31.975 Y27.694
G1 F1200 X32.267 Y27.384 E23.58609
G1 X32.384 Y27.267 E23.5916
G1 X32.956 Y26.753 E23.61717
G1 X33.578 Y26.3 E23.64277
G1 X34.243 Y25.914 E23.66834
G1 X34.945 Y25.599 E23.69393
G1 X35.676 Y25.359 E23.71952
G1 X36.427 Y25.196 E23.74508
G1 X37.192 Y25.112 E23.77068
G1 X37.617 Y25.1 E23.78482
G1 X197.383 Y25.1 E29.09866
G1 X198.151 Y25.14 E29.12424
G1 X198.911 Y25.259 E29.14982
G1 X199.654 Y25.457 E29.1754
G1 X200.373 Y25.731 E29.20099
G1 X201.059 Y26.078 E29.22656
G1 X201.706 Y26.494 E29.25214
G1 X202.306 Y26.975 E29.27772
G1 X202.616 Y27.267 E29.29188
G1 X202.733 Y27.384 E29.29739
G1 X203.247 Y27.956 E29.32296
G1 X203.7 Y28.578 E29.34856
G1 X204.086 Y29.243 E29.37413
G1 X204.401 Y29.945 E29.39972
G1 X204.641 Y30.676 E29.42531
G1 X204.804 Y31.427 E29.45087
G1 X204.888 Y32.192 E29.47647
G1 X204.9 Y32.617 E29.49061
G1 X204.9 Y202.383 E35.13705
G1 X204.86 Y203.151 E35.16263
G1 X204.741 Y203.911 E35.18822
G1 X204.543 Y204.654 E35.21379
G1 X204.269 Y205.373 E35.23938
G1 X203.922 Y206.059 E35.26495
G1 X203.506 Y206.706 E35.29053
G1 X203.025 Y207.306 E35.31611
G1 X202.733 Y207.616 E35.33028
G1 X202.616 Y207.733 E35.33578
G1 X202.044 Y208.247 E35.36136
G1 X201.422 Y208.7 E35.38695
G1 X200.757 Y209.086 E35.41252
G1 X200.055 Y209.401 E35.43812
G1 X199.324 Y209.641 E35.46371
G1 X198.573 Y209.804 E35.48927
G1 X197.808 Y209.888 E35.51486
G1 X197.383 Y209.9 E35.529
G1 X37.617 Y209.9 E40.84284
G1 X36.849 Y209.86 E40.86842
G1 X36.089 Y209.741 E40.89401
G1 X35.346 Y209.543 E40.91958
G1 X34.627 Y209.269 E40.94517
G1 X33.941 Y208.922 E40.97074
G1 X33.294 Y208.506 E40.99633
G1 X32.694 Y208.025 E41.0219
G1 X32.384 Y207.733 E41.03607
G1 X32.267 Y207.616 E41.04157
G1 X31.753 Y207.044 E41.06715
G1 X31.3 Y206.422 E41.09274
G1 X30.914 Y205.757 E41.11831
G1 X30.599 Y205.055 E41.14391
G1 X30.359 Y204.324 E41.1695
G1 X30.196 Y203.573 E41.19506
G1 X30.112 Y202.808 E41.22065
G1 X30.1 Y202.383 E41.23479
G1 X30.1 Y32.617 E46.88123
G1 X30.14 Y31.849 E46.90681
G1 X30.259 Y31.089 E46.9324
G1 X30.457 Y30.346 E46.95797
G1 X30.731 Y29.627 E46.98356
G1 X31.078 Y28.941 E47.00913
G1 X31.494 Y28.294 E47.03472
G1 X31.975 Y27.694 E47.06029
G0 F6000 X31.892 Y28.428
G1 F1200 X32.55 Y27.667 E47.09376
G1 X32.667 Y27.55 E47.09926
G1 X33.224 Y27.05 E47.12415
G1 X33.83 Y26.613 E47.149
G1 X34.48 Y26.242 E47.1739
G1 X35.166 Y25.943 E47.19879
G1 X35.88 Y25.719 E47.22367
G1 X36.613 Y25.572 E47.24854
G1 X37.617 Y25.5 E47.28202
G1 X197.383 Y25.5 E52.59586
G1 X198.13 Y25.54 E52.62074
G1 X198.868 Y25.659 E52.6456
G1 X199.59 Y25.857 E52.6705
G1 X200.286 Y26.13 E52.69537
G1 X200.949 Y26.477 E52.72026
G1 X201.572 Y26.892 E52.74515
G1 X202.333 Y27.55 E52.77862
G1 X202.45 Y27.667 E52.78412
G1 X202.95 Y28.224 E52.80901
G1 X203.387 Y28.83 E52.83386
G1 X203.758 Y29.48 E52.85876
G1 X204.057 Y30.166 E52.88365
G1 X204.281 Y30.88 E52.90853
G1 X204.428 Y31.613 E52.9334
G1 X204.5 Y32.617 E52.96688
G1 X204.5 Y202.383 E58.61332
G1 X204.46 Y203.13 E58.6382
G1 X204.341 Y203.868 E58.66306
G1 X204.143 Y204.59 E58.68796
G1 X203.87 Y205.286 E58.71283
G1 X203.523 Y205.949 E58.73772
G1 X203.108 Y206.572 E58.76262
G1 X202.45 Y207.333 E58.79608
G1 X202.333 Y207.45 E58.80158
G1 X201.776 Y207.95 E58.82647
G1 X201.17 Y208.387 E58.85132
G1 X200.52 Y208.758 E58.87622
G1 X199.834 Y209.057 E58.90111
G1 X199.12 Y209.281 E58.926
G1 X198.387 Y209.428 E58.95086
G1 X197.383 Y209.5 E58.98434
G1 X37.617 Y209.5 E64.29818
G1 X36.87 Y209.46 E64.32306
G1 X36.132 Y209.341 E64.34792
G1 X35.41 Y209.143 E64.37282
G1 X34.714 Y208.87 E64.39769
G1 X34.051 Y208.523 E64.42258
G1 X33.428 Y208.108 E64.44748
G1 X32.667 Y207.45 E64.48094
G1 X32.55 Y207.333 E64.48644
G1 X32.05 Y206.776 E64.51133
G1 X31.613 Y206.17 E64.53618
G1 X31.242 Y205.52 E64.56108
G1 X30.943 Y204.834 E64.58597
G1 X30.719 Y204.12 E64.61086
G1 X30.572 Y203.387 E64.63572
G1 X30.5 Y202.383 E64.6692
G1 X30.5 Y32.617 E70.31564
G1 X30.54 Y31.87 E70.34052
G1 X30.659 Y31.132 E70.36538
G1 X30.857 Y30.41 E70.39028
G1 X31.13 Y29.714 E70.41515
G1 X31.477 Y29.051 E70.44004
G1 X31.892 Y28.428 E70.46494
G0 F6000 X32.289 Y28.567
G1 F1200 X32.833 Y27.95 E70.4923
G1 X32.95 Y27.833 E70.4978
G1 X33.491 Y27.349 E70.52194
G1 X34.082 Y26.926 E70.54612
G1 X34.716 Y26.572 E70.57027
G1 X35.385 Y26.289 E70.59443
G1 X36.081 Y26.081 E70.61859
G1 X36.796 Y25.951 E70.64276
G1 X37.617 Y25.9 E70.67012
G1 X197.383 Y25.9 E75.98396
G1 X198.108 Y25.94 E76.00811
G1 X198.825 Y26.059 E76.03228
G1 X199.524 Y26.257 E76.05644
G1 X200.197 Y26.53 E76.0806
G1 X200.836 Y26.875 E76.10475
G1 X201.433 Y27.289 E76.12892
G1 X202.05 Y27.833 E76.15628
G1 X202.167 Y27.95 E76.16178
G1 X202.651 Y28.491 E76.18592
G1 X203.074 Y29.082 E76.21009
G1 X203.428 Y29.716 E76.23425
G1 X203.711 Y30.385 E76.25841
G1 X203.919 Y31.081 E76.28257
G1 X204.049 Y31.796 E76.30674
G1 X204.1 Y32.617 E76.3341
G1 X204.1 Y202.383 E81.98054
G1 X204.06 Y203.108 E82.00469
G1 X203.941 Y203.825 E82.02886
G1 X203.743 Y204.524 E82.05302
G1 X203.47 Y205.197 E82.07718
G1 X203.125 Y205.836 E82.10133
G1 X202.711 Y206.433 E82.1255
G1 X202.167 Y207.05 E82.15286
G1 X202.05 Y207.167 E82.15836
G1 X201.509 Y207.651 E82.1825
G1 X200.918 Y208.074 E82.20668
G1 X200.284 Y208.428 E82.23083
G1 X199.615 Y208.711 E82.25499
G1 X198.919 Y208.919 E82.27915
G1 X198.204 Y209.049 E82.30332
G1 X197.383 Y209.1 E82.33068
G1 X37.617 Y209.1 E87.64452
G1 X36.892 Y209.06 E87.66867
G1 X36.175 Y208.941 E87.69284
G1 X35.476 Y208.743 E87.717
G1 X34.803 Y208.47 E87.74116
G1 X34.164 Y208.125 E87.76531
G1 X33.567 Y207.711 E87.78948
G1 X32.95 Y207.167 E87.81684
G1 X32.833 Y207.05 E87.82234
G1 X32.349 Y206.509 E87.84648
G1 X31.926 Y205.918 E87.87065
G1 X31.572 Y205.284 E87.89481
G1 X31.289 Y204.615 E87.91897
G1 X31.081 Y203.919 E87.94313
G1 X30.951 Y203.204 E87.9673
G1 X30.9 Y202.383 E87.99466
G1 X30.9 Y32.617 E93.6411
G1 X30.94 Y31.892 E93.66525
G1 X31.059 Y31.175 E93.68942
G1 X31.257 Y30.476 E93.71358
G1 X31.53 Y29.803 E93.73774
G1 X31.875 Y29.164 E93.76189
G1 X32.289 Y28.567 E93.78606
G0 F6000 X32.685 Y28.711
G1 F1200 X33.116 Y28.233 E93.80746
G1 X33.233 Y28.116 E93.81297
G1 X33.758 Y27.647 E93.83638
G1 X34.333 Y27.241 E93.85979
G1 X34.951 Y26.903 E93.88322
G1 X35.602 Y26.636 E93.90662
G1 X36.28 Y26.446 E93.93004
G1 X36.975 Y26.333 E93.95346
G1 X37.617 Y26.3 E93.97484
G1 X197.383 Y26.3 E99.28868
G1 X198.086 Y26.34 E99.3121
G1 X198.78 Y26.459 E99.33552
G1 X199.455 Y26.657 E99.35892
G1 X200.104 Y26.929 E99.38232
G1 X200.718 Y27.274 E99.40575
G1 X201.289 Y27.685 E99.42915
G1 X201.767 Y28.116 E99.45055
G1 X201.884 Y28.233 E99.45606
G1 X202.353 Y28.758 E99.47947
G1 X202.759 Y29.333 E99.50288
G1 X203.097 Y29.951 E99.52631
G1 X203.364 Y30.602 E99.54971
G1 X203.554 Y31.28 E99.57313
G1 X203.667 Y31.975 E99.59655
G1 X203.7 Y32.617 E99.61793
G1 X203.7 Y202.383 E105.26437
G1 X203.66 Y203.086 E105.28779
G1 X203.541 Y203.78 E105.31121
G1 X203.343 Y204.455 E105.33461
G1 X203.071 Y205.104 E105.35801
G1 X202.726 Y205.718 E105.38144
G1 X202.315 Y206.289 E105.40484
G1 X201.884 Y206.767 E105.42625
G1 X201.767 Y206.884 E105.43175
G1 X201.242 Y207.353 E105.45516
G1 X200.667 Y207.759 E105.47857
G1 X200.049 Y208.097 E105.502
G1 X199.398 Y208.364 E105.52541
G1 X198.72 Y208.554 E105.54882
G1 X198.025 Y208.667 E105.57224
G1 X197.383 Y208.7 E105.59363
G1 X37.617 Y208.7 E110.90746
G1 X36.914 Y208.66 E110.93088
G1 X36.22 Y208.541 E110.9543
G1 X35.545 Y208.343 E110.9777
G1 X34.896 Y208.071 E111.0011
G1 X34.282 Y207.726 E111.02453
G1 X33.711 Y207.315 E111.04793
G1 X33.233 Y206.884 E111.06934
G1 X33.116 Y206.767 E111.07484
G1 X32.647 Y206.242 E111.09825
G1 X32.241 Y205.667 E111.12167
G1 X31.903 Y205.049 E111.14509
G1 X31.636 Y204.398 E111.1685
G1 X31.446 Y203.72 E111.19192
G1 X31.333 Y203.025 E111.21533
G1 X31.3 Y202.383 E111.23672
G1 X31.3 Y32.617 E116.88316
G1 X31.34 Y31.914 E116.90658
G1 X31.459 Y31.22 E116.92999
G1 X31.657 Y30.545 E116.95339
G1 X31.929 Y29.896 E116.9768
G1 X32.274 Y29.282 E117.00022
G1 X32.685 Y28.711 E117.02362
G0 F6000 X33.082 Y28.859
G1 F1200 X33.399 Y28.516 E117.03915
G1 X33.516 Y28.399 E117.04466
G1 X34.025 Y27.946 E117.06732
G1 X34.583 Y27.557 E117.08995
G1 X35.183 Y27.235 E117.11259
G1 X35.817 Y26.986 E117.13525
G1 X36.476 Y26.813 E117.15791
G1 X37.15 Y26.719 E117.18054
G1 X37.617 Y26.7 E117.19609
G1 X197.383 Y26.7 E122.50993
G1 X198.063 Y26.74 E122.53258
G1 X198.733 Y26.859 E122.55522
G1 X199.385 Y27.056 E122.57787
G1 X200.009 Y27.328 E122.60051
G1 X200.597 Y27.672 E122.62317
G1 X201.141 Y28.082 E122.64583
G1 X201.484 Y28.399 E122.66136
G1 X201.601 Y28.516 E122.66686
G1 X202.054 Y29.025 E122.68953
G1 X202.443 Y29.583 E122.71215
G1 X202.765 Y30.183 E122.7348
G1 X203.014 Y30.817 E122.75745
G1 X203.187 Y31.476 E122.78011
G1 X203.281 Y32.15 E122.80275
G1 X203.3 Y32.617 E122.81829
G1 X203.3 Y202.383 E128.46473
G1 X203.26 Y203.063 E128.48739
G1 X203.141 Y203.733 E128.51002
G1 X202.944 Y204.385 E128.53268
G1 X202.672 Y205.009 E128.55532
G1 X202.328 Y205.597 E128.57798
G1 X201.918 Y206.141 E128.60063
G1 X201.601 Y206.484 E128.61617
G1 X201.484 Y206.601 E128.62167
G1 X200.975 Y207.054 E128.64433
G1 X200.417 Y207.443 E128.66696
G1 X199.817 Y207.765 E128.68961
G1 X199.183 Y208.014 E128.71226
G1 X198.524 Y208.187 E128.73492
G1 X197.85 Y208.281 E128.75756
G1 X197.383 Y208.3 E128.7731
G1 X37.617 Y208.3 E134.08694
G1 X36.937 Y208.26 E134.1096
G1 X36.267 Y208.141 E134.13223
G1 X35.615 Y207.944 E134.15488
G1 X34.991 Y207.672 E134.17752
G1 X34.403 Y207.328 E134.20018
G1 X33.859 Y206.918 E134.22284
G1 X33.516 Y206.601 E134.23837
G1 X33.399 Y206.484 E134.24388
G1 X32.946 Y205.975 E134.26654
G1 X32.557 Y205.417 E134.28916
G1 X32.235 Y204.817 E134.31181
G1 X31.986 Y204.183 E134.33447
G1 X31.813 Y203.524 E134.35713
G1 X31.719 Y202.85 E134.37976
G1 X31.7 Y202.383 E134.39531
G1 X31.7 Y32.617 E140.04175
G1 X31.74 Y31.937 E140.0644
G1 X31.859 Y31.267 E140.08704
G1 X32.056 Y30.615 E140.10969
G1 X32.328 Y29.991 E140.13233
G1 X32.672 Y29.403 E140.15499
G1 X33.082 Y28.859 E140.17764
G0 F6000 X33.682 Y28.799
G1 F1200 X33.799 Y28.682 E140.18315
G1 X34.291 Y28.246 E140.20501
G1 X34.832 Y27.874 E140.22685
G1 X35.414 Y27.57 E140.24869
G1 X36.029 Y27.339 E140.27054
G1 X36.668 Y27.184 E140.29241
G1 X37.617 Y27.1 E140.3241
G1 X197.383 Y27.1 E145.63793
G1 X198.039 Y27.14 E145.65979
G1 X198.685 Y27.259 E145.68164
G1 X199.312 Y27.456 E145.7035
G1 X199.91 Y27.728 E145.72535
G1 X200.471 Y28.07 E145.7472
G1 X201.201 Y28.682 E145.77889
G1 X201.318 Y28.799 E145.78439
G1 X201.754 Y29.291 E145.80626
G1 X202.126 Y29.832 E145.82809
G1 X202.43 Y30.414 E145.84993
G1 X202.661 Y31.029 E145.87178
G1 X202.816 Y31.668 E145.89365
G1 X202.9 Y32.617 E145.92534
G1 X202.9 Y202.383 E151.57178
G1 X202.86 Y203.039 E151.59364
G1 X202.741 Y203.685 E151.61549
G1 X202.544 Y204.312 E151.63734
G1 X202.272 Y204.91 E151.65919
G1 X201.93 Y205.471 E151.68105
G1 X201.318 Y206.201 E151.71273
G1 X201.201 Y206.318 E151.71823
G1 X200.709 Y206.754 E151.7401
G1 X200.168 Y207.126 E151.76194
G1 X199.586 Y207.43 E151.78378
G1 X198.971 Y207.661 E151.80563
G1 X198.332 Y207.816 E151.8275
G1 X197.383 Y207.9 E151.85918
G1 X37.617 Y207.9 E157.17302
G1 X36.961 Y207.86 E157.19488
G1 X36.315 Y207.741 E157.21673
G1 X35.688 Y207.544 E157.23859
G1 X35.09 Y207.272 E157.26044
G1 X34.529 Y206.93 E157.28229
G1 X33.799 Y206.318 E157.31397
G1 X33.682 Y206.201 E157.31948
G1 X33.246 Y205.709 E157.34134
G1 X32.874 Y205.168 E157.36318
G1 X32.57 Y204.586 E157.38502
G1 X32.339 Y203.971 E157.40687
G1 X32.184 Y203.332 E157.42874
G1 X32.1 Y202.383 E157.46043
G1 X32.1 Y32.617 E163.10687
G1 X32.14 Y31.961 E163.12872
G1 X32.259 Y31.315 E163.15057
G1 X32.456 Y30.688 E163.17243
G1 X32.728 Y30.09 E163.19428
G1 X33.07 Y29.529 E163.21613
G1 X33.682 Y28.799 E163.24782
G0 F6000 X33.964 Y29.081
G1 F1200 X34.081 Y28.964 E163.25332
G1 X34.556 Y28.547 E163.27434
G1 X35.079 Y28.192 E163.29537
G1 X35.643 Y27.906 E163.3164
G1 X36.238 Y27.694 E163.33741
G1 X36.856 Y27.558 E163.35846
G1 X37.617 Y27.5 E163.38384
G1 X197.383 Y27.5 E168.69768
G1 X198.014 Y27.54 E168.71871
G1 X198.635 Y27.659 E168.73974
G1 X199.235 Y27.856 E168.76074
G1 X199.807 Y28.127 E168.7818
G1 X200.339 Y28.467 E168.80279
G1 X200.919 Y28.964 E168.8282
G1 X201.036 Y29.081 E168.8337
G1 X201.453 Y29.556 E168.85472
G1 X201.808 Y30.079 E168.87575
G1 X202.094 Y30.643 E168.89678
G1 X202.306 Y31.238 E168.91779
G1 X202.442 Y31.856 E168.93884
G1 X202.5 Y32.617 E168.96422
G1 X202.5 Y202.383 E174.61066
G1 X202.46 Y203.014 E174.63169
G1 X202.341 Y203.635 E174.65272
G1 X202.144 Y204.235 E174.67372
G1 X201.873 Y204.807 E174.69478
G1 X201.533 Y205.339 E174.71578
